X: 0
T: Paddy on the Handcar
P: piffero primo b0051
O: safd 055
%R: reel
F: http://ancients.sudburymuster.org/mus/ssp/pdf/billybudF.pdf
Z: 2019 John Chambers <jc:trillian.mit.edu>
M: 2/4
L: 1/16
K: D
|:\
EAAA A2AB | cBAB cBAG | EGGG G2G2 | DGGG G2G2 |\
EAAA A2AB |
cBAB c2Bc | edef gfed | e2A2 A2z2 ::\
e2a2 e2a2 | edef gfed |
G2g2 G2g2 | BABc d4 |\
e2a2 e2a2 | edef g2d2 | edef gfed | e2A2 A2z2 :|


